Simply-Green-Circles/scalable/places/folder-music.svg

<?xml version="1.0" encoding="UTF-8" standalone="no"?>
<svg
   xmlns:dc="http://purl.org/dc/elements/1.1/"
   xmlns:cc="http://creativecommons.org/ns#"
   xmlns:rdf="http://www.w3.org/1999/02/22-rdf-syntax-ns#"
   xmlns:svg="http://www.w3.org/2000/svg"
   xmlns="http://www.w3.org/2000/svg"
   xmlns:sodipodi="http://sodipodi.sourceforge.net/DTD/sodipodi-0.dtd"
   xmlns:inkscape="http://www.inkscape.org/namespaces/inkscape"
   width="48"
   height="48"
   viewBox="0 0 12.7 12.7"
   version="1.1"
   id="svg8"
   sodipodi:docname="folder-music.svg"
   inkscape:version="0.92.4 (5da689c313, 2019-01-14)">
  <metadata
     id="metadata14">
    <rdf:RDF>
      <cc:Work
         rdf:about="">
        <dc:format>image/svg+xml</dc:format>
        <dc:type
           rdf:resource="http://purl.org/dc/dcmitype/StillImage" />
        <dc:title></dc:title>
      </cc:Work>
    </rdf:RDF>
  </metadata>
  <defs
     id="defs12" />
  <sodipodi:namedview
     pagecolor="#ffffff"
     bordercolor="#666666"
     borderopacity="1"
     objecttolerance="10"
     gridtolerance="10"
     guidetolerance="10"
     inkscape:pageopacity="0"
     inkscape:pageshadow="2"
     inkscape:window-width="1085"
     inkscape:window-height="480"
     id="namedview10"
     showgrid="false"
     inkscape:zoom="4.9166667"
     inkscape:cx="2.1355932"
     inkscape:cy="24"
     inkscape:window-x="0"
     inkscape:window-y="25"
     inkscape:window-maximized="0"
     inkscape:current-layer="svg8" />
  <g
     id="g6"
     style="fill:#2ca02c">
    <path
       d="M 6.344,0.07 A 6.29,6.29 0 0 0 0.055,6.36 6.29,6.29 0 0 0 6.345,12.648 6.29,6.29 0 0 0 12.633,6.359 6.29,6.29 0 0 0 6.345,0.07 Z M 6.326,1.006 A 5.407,5.407 0 0 1 11.733,6.413 5.407,5.407 0 0 1 6.326,11.82 5.407,5.407 0 0 1 0.92,6.413 5.407,5.407 0 0 1 6.327,1.006 Z"
       id="path2"
       inkscape:connector-curvature="0" />
    <path
       d="M 9.123,2.14 C 7.765,2.357 6.203,2.58 4.848,2.808 4.49,2.982 4.57,3.428 4.554,3.751 V 8.084 C 3.633,7.873 2.62,8.561 2.581,9.54 2.515,10.15 3.061,10.68 3.655,10.694 4.718,10.719 5.526,10.021 5.537,9.139 5.526,7.656 5.541,6.173 5.537,4.69 5.702,4.678 8.276,4.207 8.5,4.176 V 7.508 C 7.65,7.257 6.8,7.781 6.59,8.658 6.435,9.166 6.669,9.768 7.173,9.976 8.157,10.423 9.543,9.516 9.487,8.452 9.472,6.475 9.5,4.498 9.487,2.52 9.461,2.335 9.334,2.126 9.123,2.14 Z"
       id="path4"
       inkscape:connector-curvature="0" />
  </g>
</svg>

<svg xmlns="http://www.w3.org/2000/svg" width="48" height="48" viewBox="0 0 12.7 12.7"><g fill="#2ca02c"><path d="M6.34.07A6.29 6.29 0 0 0 .05 6.36a6.29 6.29 0 0 0 6.3 6.29 6.29 6.29 0 0 0 6.28-6.3A6.29 6.29 0 0 0 6.34.08zm-.01.94a5.4 5.4 0 0 1 5.4 5.4 5.4 5.4 0 0 1-5.4 5.41 5.4 5.4 0 0 1-5.41-5.4A5.4 5.4 0 0 1 6.32 1z"/><path d="M9.12 2.14c-1.35.22-2.92.44-4.27.67-.36.17-.28.62-.3.94v4.33c-.92-.2-1.93.48-1.97 1.46-.07.61.48 1.14 1.07 1.15 1.07.03 1.88-.67 1.89-1.55V4.69c.16-.01 2.74-.48 2.96-.51V7.5c-.85-.25-1.7.27-1.91 1.15-.15.5.08 1.1.58 1.32.99.44 2.37-.46 2.32-1.53-.02-1.98.01-3.95 0-5.93-.03-.19-.16-.4-.37-.38z"/></g></svg>
